img/logo-without-icon.svg

<svg fill="none" height="32" viewBox="0 0 85 32" width="85" xmlns="http://www.w3.org/2000/svg"><g fill="#17213b"><path d="m3.87806 12.4884h4.53205l-.79749-3.03433h-7.041209v13.49893l3.306649-.1556v-4.6293h3.28719v-2.8204h-3.28719z"/><path d="m17.6947 12.1772c2.1007 0 3.8124 1.9062 3.8124 3.9485s-1.7117 3.9485-3.8124 3.9485-3.8124-1.9062-3.8124-3.9485 1.7117-3.9485 3.8124-3.9485zm0-3.03435c-3.8902 0-7.119 3.09265-7.119 6.98285s3.2288 6.9829 7.119 6.9829 7.119-3.0927 7.119-6.9829-3.2288-6.98285-7.119-6.98285z"/><path d="m34.7788 12.1772c2.1007 0 3.8123 1.9062 3.8123 3.9485s-1.7116 3.9485-3.8123 3.9485-3.8124-1.9062-3.8124-3.9485 1.7117-3.9485 3.8124-3.9485zm0-3.03435c-3.8902 0-7.119 3.09265-7.119 6.98285s3.2288 6.9829 7.119 6.9829 7.119-3.0927 7.119-6.9829-3.2288-6.98285-7.119-6.98285z"/><path d="m45.3274 22.7974h4.6293c3.7929 0 6.8467-2.8982 6.8467-6.6717s-3.0538-6.67163-6.8467-6.67163h-4.6293zm3.3066-10.523h1.0309c2.1396 0 3.8318 1.809 3.8318 3.8513s-1.6922 3.8513-3.8318 3.8513h-1.0309z"/><path d="m65.6534 9.14285-7.441 13.89165h3.558l1.3154-2.7852h5.0767l1.4357 2.7852h3.5581l-7.464-13.89165zm0 5.36845 1.77 3.2677h-3.5401z"/><path d="m75.268 22.6806 3.4234.428 5.5824-12.9932-3.1316-.97255-2.1591 5.38785-3.4039-5.38785-3.0927 1.26435 4.9211 7.6636z"/></g></svg>

<svg width="85" height="32" viewBox="0 0 85 32" fill="none" xmlns="http://www.w3.org/2000/svg">
<path d="M3.87806 12.4884H8.41011L7.61262 9.45407H0.571411V22.953L3.87806 22.7974V18.1681H7.16525V15.3477H3.87806V12.4884Z" fill="#17213B"/>
<path d="M17.6947 12.1772C19.7954 12.1772 21.5071 14.0834 21.5071 16.1257C21.5071 18.168 19.7954 20.0742 17.6947 20.0742C15.594 20.0742 13.8823 18.168 13.8823 16.1257C13.8823 14.0834 15.594 12.1772 17.6947 12.1772ZM17.6947 9.14285C13.8045 9.14285 10.5757 12.2355 10.5757 16.1257C10.5757 20.0159 13.8045 23.1086 17.6947 23.1086C21.5849 23.1086 24.8137 20.0159 24.8137 16.1257C24.8137 12.2355 21.5849 9.14285 17.6947 9.14285Z" fill="#17213B"/>
<path d="M34.7788 12.1772C36.8795 12.1772 38.5911 14.0834 38.5911 16.1257C38.5911 18.168 36.8795 20.0742 34.7788 20.0742C32.6781 20.0742 30.9664 18.168 30.9664 16.1257C30.9664 14.0834 32.6781 12.1772 34.7788 12.1772ZM34.7788 9.14285C30.8886 9.14285 27.6598 12.2355 27.6598 16.1257C27.6598 20.0159 30.8886 23.1086 34.7788 23.1086C38.669 23.1086 41.8978 20.0159 41.8978 16.1257C41.8978 12.2355 38.669 9.14285 34.7788 9.14285Z" fill="#17213B"/>
<path d="M45.3274 22.7974H49.9567C53.7496 22.7974 56.8034 19.8992 56.8034 16.1257C56.8034 12.3522 53.7496 9.45407 49.9567 9.45407H45.3274V22.7974ZM48.634 12.2744H49.6649C51.8045 12.2744 53.4967 14.0834 53.4967 16.1257C53.4967 18.168 51.8045 19.977 49.6649 19.977H48.634V12.2744Z" fill="#17213B"/>
<path d="M65.6534 9.14285L58.2124 23.0345H61.7704L63.0858 20.2493H68.1625L69.5982 23.0345H73.1563L65.6923 9.14285H65.6534ZM65.6534 14.5113L67.4234 17.779H63.8833L65.6534 14.5113Z" fill="#17213B"/>
<path d="M75.268 22.6806L78.6914 23.1086L84.2738 10.1154L81.1422 9.14285L78.9831 14.5307L75.5792 9.14285L72.4865 10.4072L77.4076 18.0708L75.268 22.6806Z" fill="#17213B"/>
</svg>
